X:371
T: Zhi shoujin
N: C1406
O: China,Shaanxi, Hancheng
S: I, 72]
R: Wuge, Yangge diao]
M: 2/4
L: 1/16
K: C
dedcdAd2- | d2edcAd2 | GG2Ad2d2 | cAcAF4 |
G3Ad2cd | f2AGF2FG | cAcAAGFG | D4D2z2 |
fAAGFDD2- | D2G2A2d2 | edcAAGFG | A2G2D4 |
G3Ad2cd | f2AGF3G | cAcAAGFG | D4D2z2

@@@ Tune index: 6372
